X:1
T:Far from God, Away from Jesus
T:Robert Harkness, before 1914
T:Far from God, Away from Jesus
T:Public Domain
T:Public Domain
C:Robert Harkness, before 1914
Z:Public Domain
%%score ( 1 2 ) 3
L:1/8
M:3/4
K:F
V:1 treble 
V:2 treble 
V:3 bass 
V:1
 [FA][FA] | [Ec]3 [CE] [EA][EG] | F2 [FA]2 [GA][GA] | [^Fd]3 [Ac] [GB][FA] | [GB]4 [DB][DB] | %5
w: 1.~Far from|God, a- way from|Je- sus, Stray- ing|the paths of sin,|Know- ing not|
w: 2.~Why con-|tin- ue in your|roam- ing? Je- sus|you come to- day.|Mer- cy’s of-|
w: 3.~How much|long- er will you|tar- ry? How much|er will you roam?|List- en, Je-|
w: 4.~Can you|stay a- way from|Je- sus With e-|ni- ty in view?|Can you still|
w: 5.~You may|al- most come to|Je- sus, But “al-|will ne- ver save;|For the soul|
 [Ec]3 [EG] [Ec][GB] | [FB]2 [FA]2 [^DA][DA] | [EG][EA] [Ec]2 [F=B]2 | [Ec]6 || %9
w: God’s full sal- va-|tion, Je- sus calls|you midst earth’s din.||
w: fer still is o-|pen; Why not come|with- out de- lay?||
w: sus calls you to|Him; Will you not|at once come home?||
w: re- ject His mer-|cy When you hear|His call so true?||
w: that “ful- ly” trusts|Him On the cross|His life He gave.||
"^Refrain" [B,c]3 [B,C] [B,D][CF] | [CE]2 [Ec]4 | [Fc]3 C [CF][FG] | [FA]4 [FA][Fc] | %13
w: ||||
w: ||||
w: ||||
w: ||||
w: ||||
 [Be]3 [EB] [Be][Ed] | [Fc]2 [FA]4 | [Ec]3 [B,C] [A,C][B,C] | [A,C]4 |] %17
w: ||||
w: ||||
w: ||||
w: ||||
w: ||||
V:2
 x2 | x6 | F2 x4 | x6 | x6 | x6 | x6 | x6 | x6 || x6 | x6 | x3 C x2 | x6 | x6 | x6 | x6 | x4 |] %17
w: ||in|||||||||||||||
w: ||bids|||||||||||||||
w: ||long-|||||||||||||||
w: ||ter-|||||||||||||||
w: ||most”|||||||||||||||
V:3
 [F,C][F,C] | [C,B,]3 [C,B,] [C,C][C,B,] | [F,A,]2 [F,C]2 [E,^C][E,C] | [D,D]3 [^F,D] [G,D][D,D] | %4
w: ~ ~|~ ~ ~ ~|~ ~ ~ ~|~ ~ ~ ~|
 [G,D]4 [G,B,][G,B,] | [C,C]3 [C,C] [C,G,][E,C] | [F,D]2 [F,C]2 [^F,C][F,C] | %7
w: ~ ~ ~|~ ~ ~ ~|~ ~ ~ ~|
 [G,C][A,C] [G,C]2 [G,D]2 | [C,C]6 || [C,E,]3 [C,E,] [C,F,][C,A,] | [C,G,]2 [C,G,]4 | %11
w: ~ ~ ~ ~|~|Come, ’tis Je- sus|calls you;|
 [F,A,]3 [F,A,] [F,A,][F,B,] | [F,C]4 [F,C][F,A,] | [C,C]3 [C,G,] [C,C][C,B,] | [F,A,]2 [F,C]4 | %15
w: Come, with- out de-|lay. He is|will- ing now to|save you;|
 [C,C]3 [C,G,] [C,F,][C,E,] | [F,,F,]4 |] %17
w: Come, O come to-|day.|

